material/.icons/material/sina-weibo.svg

<svg xmlns="http://www.w3.org/2000/svg" viewBox="0 0 24 24"><path d="M9.82 13.87c1.07 0 1.95.87 1.95 1.95a1.95 1.95 0 01-1.95 1.95c-1.08 0-1.95-.88-1.95-1.95 0-1.08.87-1.95 1.95-1.95M14.5 3.34l.68-.03c3.76 0 6.82 3.06 6.82 6.82l-.05.82-1.19-.37.02-.45c0-3.09-2.51-5.6-5.6-5.6l-.35.01-.33-1.2m.82 2.89c2.06.07 3.73 1.77 3.76 3.83l-1.24-.38c-.19-1.12-1.06-2-2.17-2.18l-.35-1.27M2 15.41c-.03-.61.07-2.77 2.95-5.44 3.4-3.16 4.87-2.92 4.87-2.92s3.18-.3 1.24 3.41h.07c.47-.5 1.49-1.25 3.56-1.46 2.08-.21 2.08 1.5 1.81 2.7 1.88.94 3.06 2.33 3.06 3.88 0 2.82-3.93 5.11-8.78 5.11h-.28c-3.5 0-6.5-1.27-7.79-3.1-.46-.62-.71-1.3-.71-2.01v-.17m7.82-3.49c-3.23 0-5.85 1.75-5.85 3.9s2.62 3.9 5.85 3.9c3.23 0 5.85-1.75 5.85-3.9s-2.62-3.9-5.85-3.9z"/></svg>

<?xml version="1.0" encoding="UTF-8"?><!DOCTYPE svg PUBLIC "-//W3C//DTD SVG 1.1//EN" "http://www.w3.org/Graphics/SVG/1.1/DTD/svg11.dtd"><svg xmlns="http://www.w3.org/2000/svg" xmlns:xlink="http://www.w3.org/1999/xlink" version="1.1" id="mdi-sina-weibo" width="24" height="24" viewBox="0 0 24 24"><path d="M9.82,13.87C10.89,13.87 11.77,14.74 11.77,15.82A1.95,1.95 0 0,1 9.82,17.77C8.74,17.77 7.87,16.89 7.87,15.82C7.87,14.74 8.74,13.87 9.82,13.87M14.5,3.34L15.18,3.31C18.94,3.31 22,6.37 22,10.13L21.95,10.95L20.76,10.58L20.78,10.13C20.78,7.04 18.27,4.53 15.18,4.53L14.83,4.54L14.5,3.34M15.32,6.23C17.38,6.3 19.05,8 19.08,10.06L17.84,9.68C17.65,8.56 16.78,7.68 15.67,7.5L15.32,6.23M2,15.41C1.97,14.8 2.07,12.64 4.95,9.97C8.35,6.81 9.82,7.05 9.82,7.05C9.82,7.05 13,6.75 11.06,10.46H11.13C11.6,9.96 12.62,9.21 14.69,9C16.77,8.79 16.77,10.5 16.5,11.7C18.38,12.64 19.56,14.03 19.56,15.58C19.56,18.4 15.63,20.69 10.78,20.69H10.65L10.5,20.69C7,20.69 4,19.42 2.71,17.59C2.25,16.97 2,16.29 2,15.58V15.41M9.82,11.92C6.59,11.92 3.97,13.67 3.97,15.82C3.97,17.97 6.59,19.72 9.82,19.72C13.05,19.72 15.67,17.97 15.67,15.82C15.67,13.67 13.05,11.92 9.82,11.92Z" /></svg>
